src/front_assets/svg/queue_list.svg

<?xml version="1.0" encoding="utf-8"?><!-- Uploaded to: SVG Repo, www.svgrepo.com, Generator: SVG Repo Mixer Tools -->
<svg width="800px" height="800px" viewBox="0 0 24 24" fill="none" xmlns="http://www.w3.org/2000/svg">
<path d="M11 14L3 14" stroke="#1C274C" stroke-width="1.5" stroke-linecap="round"/>
<path d="M11 18H3" stroke="#1C274C" stroke-width="1.5" stroke-linecap="round"/>
<path d="M18.875 14.1183C20.5288 15.0732 21.3558 15.5506 21.4772 16.2394C21.5076 16.4118 21.5076 16.5881 21.4772 16.7604C21.3558 17.4492 20.5288 17.9266 18.875 18.8815C17.2212 19.8363 16.3942 20.3137 15.737 20.0745C15.5725 20.0147 15.4199 19.9265 15.2858 19.814C14.75 19.3644 14.75 18.4096 14.75 16.4999C14.75 14.5902 14.75 13.6354 15.2858 13.1858C15.4199 13.0733 15.5725 12.9852 15.737 12.9253C16.3942 12.6861 17.2212 13.1635 18.875 14.1183Z" stroke="#1C274C" stroke-width="1.5"/>
<path d="M3 6L13.5 6M20 6L17.75 6" stroke="#1C274C" stroke-width="1.5" stroke-linecap="round"/>
<path d="M20 10L9.5 10M3 10H5.25" stroke="#1C274C" stroke-width="1.5" stroke-linecap="round"/>
</svg>

<svg xmlns="http://www.w3.org/2000/svg" width="800" height="800" fill="none" viewBox="0 0 24 24"><path stroke="#1C274C" stroke-linecap="round" stroke-width="1.5" d="M11 14H3M11 18H3"/><path stroke="#1C274C" stroke-width="1.5" d="M18.875 14.118c1.654.955 2.48 1.433 2.602 2.121a1.5 1.5 0 0 1 0 .521c-.121.69-.948 1.167-2.602 2.121-1.654.955-2.48 1.433-3.138 1.194a1.5 1.5 0 0 1-.451-.261c-.536-.45-.536-1.404-.536-3.314s0-2.865.536-3.314a1.5 1.5 0 0 1 .451-.26c.657-.24 1.484.238 3.138 1.192Z"/><path stroke="#1C274C" stroke-linecap="round" stroke-width="1.5" d="M3 6h10.5M20 6h-2.25M20 10H9.5M3 10h2.25"/></svg>
